svgs/sharp-light/head-side-mask.svg

<svg xmlns="http://www.w3.org/2000/svg" viewBox="0 0 576 512"><!--! Font Awesome Pro 6.6.0 by @fontawesome - https://fontawesome.com License - https://fontawesome.com/license (Commercial License) Copyright 2024 Fonticons, Inc. --><path d="M78.7 150.2L276.5 272l11.5 0 224 0 0-8.8-66.6-59.2-5.4-4.8 0-7.2c0-88.4-71.6-160-160-160l-24 0C176.1 32 107.6 80.8 78.7 150.2zm-10 31.4C65.6 195.3 64 209.4 64 224c0 54.5 22.6 103.6 59.1 138.5l4.9 4.7 0 6.8L128 496l0 16-32 0 0-16 0-115.2C56.4 340.4 32 285 32 224C32 100.3 132.3 0 256 0l24 0C383.6 0 468 82 471.9 184.7L538.6 244l5.4 4.8 0 7.2 0 16 0 16-4.6 16L480 512l-192 0-32 0 0-32 0-176 0-7.1L68.7 181.7zM376 176a24 24 0 1 1 0 48 24 24 0 1 1 0-48zM506.1 304L288 304l0 176 167.9 0 11.4-40L368 440l-16 0 0-32 16 0 108.4 0 9.1-32L368 376l-16 0 0-32 16 0 126.7 0 11.4-40z"/></svg>

<svg xmlns="http://www.w3.org/2000/svg" viewBox="0 0 576 512"><!--! Font Awesome Pro 6.4.2 by @fontawesome - https://fontawesome.com License - https://fontawesome.com/license (Commercial License) Copyright 2023 Fonticons, Inc. --><path d="M78.7 150.2L276.5 272H288 512v-8.8l-66.6-59.2-5.4-4.8V192c0-88.4-71.6-160-160-160H256C176.1 32 107.6 80.8 78.7 150.2zm-10 31.4C65.6 195.3 64 209.4 64 224c0 54.5 22.6 103.6 59.1 138.5l4.9 4.7v6.8V496v16H96V496 380.8C56.4 340.4 32 285 32 224C32 100.3 132.3 0 256 0h24C383.6 0 468 82 471.9 184.7L538.6 244l5.4 4.8V256v16 16l-4.6 16L480 512H288 256V480 304v-7.1L68.7 181.7zM376 176a24 24 0 1 1 0 48 24 24 0 1 1 0-48zM506.1 304H288V480H455.9l11.4-40H368 352V408h16H476.4l9.1-32H368 352V344h16H494.7l11.4-40z"/></svg>
